packages/JaxVidFlow/jaxvidflow-0.0.8.tar.gz/jaxvidflow-0.0.8/luts/double_lut_testing.cube
TITLE "Double LUT for Testing"
LUT_3D_SIZE 3

0 0 0
1 0 0
1 0 0
0 1 0
1 1 0
1 1 0
0 1 0
1 1 0
1 1 0
0 0 1
1 0 1
1 0 1
0 1 1
1 1 1
1 1 1
0 1 1
1 1 1
1 1 1
0 0 1
1 0 1
1 0 1
0 1 1
1 1 1
1 1 1
0 1 1
1 1 1
1 1 1
